public/flash.svg

<svg width="1250pt" height="1250pt" viewBox="0 0 1250 1250" xmlns="http://www.w3.org/2000/svg"><path d="M638.15 154.99c4.98-7 8.45-15.22 15.09-20.92-.36 7.46-2.92 14.57-5.8 21.39-13.02 30.99-28.77 61.02-48.76 88.12-28.54 38.96-68.83 68.83-113.6 86.61-7.39 2.89-15.16 5.07-23.14 5.26 8.32-7.5 18.31-12.73 27.58-18.91 25.62-17.48 48.99-38.13 70.29-60.65 29.34-30.97 54.79-65.39 78.34-100.9zM709.4 153.94c.9.38 1.8.77 2.72 1.16 5.41 22.81 8.72 46.09 15.13 68.67 4.86 17.94 11.5 35.43 20.16 51.89 14.14 27.2 34.46 50.51 55.23 72.82 13.04 13.86 26.5 27.32 39.68 41.05 2.82 2.88 5.17 6.21 6.93 9.84-9.76-2.69-18.1-8.68-26.38-14.27-35.89-25.33-68-57.56-87.69-97.22-7.94-15.79-13.17-32.77-17.28-49.9-6.55-27.48-9.37-55.82-8.5-84.04zM651.32 269.26c1.76-1.88 3.65-3.63 5.6-5.3-3.17 8.5-9.24 15.39-14.64 22.53-21.5 26.89-46.26 50.96-71.68 74.09-59.69 53.62-128.61 95.81-199.51 132.84 1.45 9.11 3.06 18.2 4.08 27.37-23.6 3.03-47.45 1.43-71.13 3-3.32.35-8.44-1.32-10.13 2.58 25.82 4.44 52.19.06 78.05 4 4.94.64 9.01 4.23 11.21 8.58 3.39 6.52 4.49 13.93 5.26 21.15.67 7.02.07 14.94-4.98 20.35-2.85 3.23-7.42 3.93-11.5 3.58-8.96-.98-18-.6-26.99-1.1-12.98-.37-26-1.37-38.97-.49 1.78 3.31 5.73 3.39 9 3.55 17.31.74 34.66 1.01 51.93 2.66 3.96.46 8.12.91 11.62 3.01 3.36 2.14 4.94 6.11 5.87 9.83 1.73 7.93-.71 16.23-4.96 22.97-.93 1.34-1.76 3.03-3.5 3.43-11.33 4.01-23.61 2.24-35.19 4.92-1.61.25-2.87 1.29-3.9 2.5 13.94 3.07 28.16-1 42.19.8 3.91.27 6.03 4.46 6.2 7.97.21 7.49.51 15.4-2.9 22.31-5.12 10.8-14.88 18.27-24.15 25.35 29.92 18.78 57.88 40.51 84.71 63.45 68.2 57.47 125.33 128.04 167.19 206.79 4.88 9.74 10.16 19.46 12.58 30.17-3.29-1.89-5.85-4.71-7.91-7.84-13.5-19.64-27.18-39.18-41.96-57.89-16.04-20.54-33.57-39.85-51.3-58.92-26.21-28.1-53.59-55.12-82.11-80.88-10.76-9.64-21.52-19.29-32.83-28.28-22.58-18.02-46.73-33.99-71.55-48.74-3.04 2.8-5.86 5.82-8.68 8.83 26.21 23.48 53.86 45.48 78.04 71.14 41.69 44.09 77.77 94.11 102.43 149.74 2.83 6.38 5.35 12.98 6.34 19.92-4.74-3.77-8.33-8.71-11.67-13.71-33.39-49.23-65.97-99.59-107.46-142.55-26.4-27.45-56.27-51.87-89.74-70.2-3.03-1.6-6.49-.59-9.64-.02 2.16 7.88 5.68 15.28 8.98 22.73 22.79 51.19 44.06 103.07 63.28 155.71 2.4 6.62 4.66 13.33 5.89 20.28-4.17-4.52-6.96-10.06-9.86-15.42-17.73-33.99-32.89-69.23-48.97-104.01-11.56-24.94-23.07-50.26-39.84-72.22-31.43 8.6-62.95 17.2-93.34 29.08-7.2 2.55-14.19 5.96-21.8 7.17-5.19.75-10.93.41-15.32-2.73-6.79-4.59-11.46-11.54-15.48-18.53-7.86-13.75-14.42-28.23-19.94-43.06-8.01-21.89-12.69-45.68-8.91-68.94 1.62-9.09 3.55-18.65 9.46-26.04 3.71-4.85 9.47-7.27 14.45-10.53 6.91-4.2 13.43-9.17 18.58-15.45 23.9-27.52 38.42-61.35 54.15-93.82 3.36-6.92 6.71-13.85 10.55-20.51 2.28-3.89 5.22-7.7 9.46-9.55 39-16.74 81.04-24.29 121.1-37.91 35.22-11.69 69.55-25.95 103.13-41.72 27.58-13.01 54.27-27.85 80.11-44.03 5.23-3.29 10.57-6.51 16.43-8.57-2.26 3.91-5.43 7.19-8.82 10.13-27.27 23.98-57.79 44.02-89.54 61.53-31.91 17.66-65.74 31.87-100.75 42.07-5.31 1.52-10.6 3.1-15.81 4.95 3.83 3.95 7.87 7.9 10.09 13.04-25.4 1.46-50.89 2.96-75.95 7.57-4.52.86-9.19 1.51-13.3 3.72-7.86 4.04-13.68 11.03-18.41 18.33 6.76-3.92 11.36-11.2 19.16-13.41 13.66-3.69 27.43-7.35 41.58-8.57 7.31-.69 14.66-.33 21.99-.42 14.01.12 28.06.3 42.01 1.79 4.05.47 7.79-1.47 11.45-2.89 65.02-26.48 124.84-64.2 180.87-106.2 38.9-29.66 77.06-60.74 110-97.06z"/><path d="M670.1 294.96c6.27 3.05 10.85 8.39 15.86 13.07 13.97 13.41 28.16 26.62 43.22 38.81 49.27 39.18 104.97 70.25 164.08 91.88 13.73 4.42 27.96 9.84 42.65 7.64-21.52-15.91-41.42-34.02-59.19-54.03-15.99-17.98-30.37-37.64-40.62-59.49 7.73 7.46 13.32 16.75 19.98 25.11 16.41 21.67 34.99 42.17 57.71 57.37 15.21 10.25 31.22 19.32 47.87 27.02 10.09 4.79 20.64 8.5 30.76 13.22 9.74 4.35 19.82 8.53 30.57 9.43 5.27.63 11.37.67 15.38 4.72 5.88 6.25 9.14 14.34 13.05 21.87 15.06 30.61 28.37 62.51 49.17 89.84 6.33 8.23 13.02 16.48 21.92 22.08 6.5 4.8 14.78 7.55 19.57 14.39 5.44 7.59 7.23 17 8.78 26.03 3.4 22.67-1.11 45.76-8.83 67.11-5.63 15.32-12.43 30.25-20.55 44.42-4.18 7.15-9.17 14.23-16.31 18.68-6.18 3.44-13.66 2.53-20.15.53-7.86-2.5-15.47-5.71-23.21-8.58-16.42-6.17-33.13-11.61-50.15-15.86-10.69 30.72-12.63 63.59-12.53 95.86-.17 10.04.03 20.14-1.51 30.09-4.16-4.6-4.56-10.99-5.91-16.73-7.57-38.18-5.31-77.44-.93-115.86-8.99-2.17-17.84-4.85-26.63-7.72-23.87 28.57-46.98 57.87-67.28 89.11-30.23 45.69-49.54 97.27-70.18 147.7-3.3 7.5-5.83 15.65-11.56 21.74.02-8.95 1.67-17.79 3.79-26.45 9.38-39.19 24.54-76.74 41.92-113 21.41-44.9 46.34-88.29 76.7-127.76-2.11-1.04-4.21-2.05-6.31-3.07-57.34 62.56-112.73 127.29-176.31 183.73-6.82 6.17-13.9 12.22-22.17 16.38 3.96-7.82 10.11-14.16 15.64-20.86 25.43-29.57 51.5-58.6 76.43-88.6 25.48-30.16 50.03-61.13 76.47-90.48 4.59-5.07 9.46-9.91 13.65-15.33-12.3-9.9-25.38-18.79-37.57-28.83-34.74 32.05-67.24 66.47-97.95 102.39-29.09 34.15-57.17 69.22-82.77 106.08-26.52 38.08-50.58 77.85-72.12 118.95-2.88 5.42-5.79 10.9-9.69 15.69 1.52-10.77 5.67-20.91 9.46-31.03 15.34-39.54 36.67-76.46 60.22-111.63 38.53-56.79 81.05-110.97 128.4-160.68 17.5-18.44 35.94-35.96 53.92-53.91-1.96-7.84-2.9-16.04-1.71-24.07.38-3.4 3.54-6.07 6.91-6.17 12.35-.91 24.73 1.99 37.04.1 1.65-.23 2.79-1.57 4.07-2.51-12.93-2.67-26.39-1.81-39.16-5.28-8.69-8.03-11.82-22.43-5.84-32.94 3-5.19 9.64-5.88 15-6.49 17.59-1.68 35.27-1.92 52.92-2.71 2.99-.05 6.37-.61 7.89-3.54-23.34-.91-46.67 1.21-69.99 1.49-5.49 0-9.53-4.86-11.21-9.66-2.02-5.84-1.3-12.16-.77-18.19.92-7.06 2.8-14.21 6.78-20.2 4.21-5.59 11.81-6.11 18.23-6.57 23.69-2.22 47.85 1.82 71.22-3.83-10.15-2.96-20.81-1.43-31.2-2.16-17.34-1.37-34.86.36-52.09-2.45 1.58-12.56 2.87-25.29 6.74-37.41 2.29-6.03 9.68-6.85 15.22-7.61 15.95-1.94 32.03-2.06 48.07-2.18 6.34.08 12.69-.22 19.02.33 14.61 1.21 28.89 4.82 42.95 8.84 7.67 2.24 12.24 9.39 18.86 13.4-5.93-9.51-14.38-18.7-25.79-21.11-25.39-4.61-51.12-7.81-76.97-7.84-20.76-.31-40.91-6.48-59.96-14.34-27.36-11.46-52.75-27.06-77.18-43.75-36.59-24.9-70.57-54-98.88-88.12-6.39-8.14-13.43-16.15-16.91-26.07z"/><path d="M738.84 418.82c3.97-3.67 7.31-8.13 11.92-11.02-6.25 10.28-13.69 19.79-20.43 29.75-25.51 36.52-51.07 72.98-76.63 109.46 18.65.08 37.31-.17 55.96.13-6.44 8.62-13.72 16.59-20.49 24.96-14.45 17.28-28.87 34.59-43.31 51.88-2 2.37-4.03 4.74-5.72 7.36 13.72-.01 27.44-.02 41.17.02-.74 1.48-1.89 2.69-3.09 3.81-52.66 52.66-105.33 105.31-157.97 157.99-2.39 2.3-4.64 4.78-7.33 6.74.7-1.54 1.48-3.05 2.43-4.45 27.02-40.49 53.92-81.05 81.05-121.47-13.91.06-27.81.08-41.71-.02 1.31-2.66 3.41-4.77 5.28-7.02 20.29-24.34 40.48-48.75 60.85-73.02 1.1-1.34 2.23-2.69 2.94-4.27-18.43.1-36.86.06-55.3.02 1.82-2.55 4.14-4.66 6.36-6.85 54.68-54.66 109.33-109.35 164.02-164z"/><path d="M596.94 451.08c22.44-4.24 45.77-3.06 67.84 2.72-1.21 2.05-3.12 3.53-4.77 5.2-5.97 5.98-12.02 11.87-17.98 17.84-1.5 1.83-3.99.85-5.97.84-38.69-3.65-78.5 12.09-104.44 40.98-24.72 26.93-36.87 64.98-31.8 101.24 3.97 31.44 20.71 60.7 44.96 80.94-3.98 7.67-9.38 14.52-13.78 21.96-.63.7-1.25 2.56-2.45 1.78-34.02-26.69-55.88-68.32-58.2-111.55-2.71-39.96 11.03-80.74 37.44-110.87 22.76-26.49 54.74-44.94 89.15-51.08zM727.98 488.47c8.52 6.9 15.68 15.4 22.25 24.15 21.39 28.93 31.98 65.6 29.35 101.48-2.21 35.46-17.33 69.92-41.83 95.64-21.41 22.87-49.92 39-80.6 45.37-16.16 3.46-32.89 4.23-49.31 2.34-3.63-.47-7.33-.74-10.78-2.02 7.8-8.33 16.14-16.14 24.08-24.33 1.41-1.88 3.91-1.21 5.93-1.37 30.41-.31 60.4-12.41 82.82-32.9 26.91-24.25 42.54-60.53 41.34-96.78-.53-20.51-6.34-40.81-16.6-58.57-6.03-11.02-14.33-20.51-22.89-29.6 5.39-7.82 10.91-15.55 16.24-23.41zM865.43 709.54c6.61-2.13 15.95 2.56 15.04 10.35.74 9.73-14.68 12.38-18.69 4.38-2.37-5-.16-11.09 3.65-14.73zM815.53 765.9c-.82-7.44 8.54-13.36 14.88-9.32 5.5 2.16 5.35 9.19 3.97 13.95-1.9 3.46-6.16 4.26-9.46 5.83-4.12-2.26-9.89-4.78-9.39-10.46zM782.27 802.19c5.36-2.73 13.29 1.64 13.1 7.85-.02 3.01.41 6.94-2.45 8.86-3.68 3.22-9.7 3.91-13.44.42-5.95-4.3-4.37-15.01 2.79-17.13zM742.22 852.2c4.82-2.32 11.1.46 13.14 5.29 1.51 4.73.28 11.04-4.76 13.11-5.73 3.28-13.66-1.02-14.37-7.47-.85-4.53 1.74-9.2 5.99-10.93zM709.15 891.1c4.87-7.49 8.88-15.91 16-21.59-1.62 10.7-6.34 20.56-10.1 30.62-15.76 39.45-32.49 78.69-43.49 119.82-7.45 26.29-10.64 53.49-16.32 80.17-2.76-2.92-2.64-7.34-3.04-11.08-2.67-42.87 5.18-86.11 20.75-126.04 9.96-24.95 22.28-48.93 36.2-71.9zM511.51 881.97c4.83 3.72 8.45 8.71 11.63 13.85 13.59 21.82 26.7 44.17 35.76 68.32 6.2 16.58 10.17 34.13 10.44 51.88.63 31.12-5.67 62-15 91.56-.88 3.13-2.43 6.56-5.81 7.58-1.35-26 .58-52.05-1.29-78.03-1.59-42.37-13.49-83.44-26.7-123.46-3.23-10.49-7.41-20.78-9.03-31.7zM608.34 1055.34c3.04-1.1 6.49-1.16 9.63-.38 3.01.75 4.53 3.74 5.5 6.42 1.7 5.53-2.64 12.09-8.42 12.66-2 .04-4.07-.07-5.92-.86-6.63-3.16-7.53-14.31-.79-17.84z"/></svg>

<?xml version="1.0" encoding="UTF-8" ?>
<!DOCTYPE svg PUBLIC "-//W3C//DTD SVG 1.1//EN" "http://www.w3.org/Graphics/SVG/1.1/DTD/svg11.dtd">
<svg width="1250pt" height="1250pt" viewBox="0 0 1250 1250" version="1.1" xmlns="http://www.w3.org/2000/svg">
<g id="#000000ff">
<path fill="#000000" opacity="1.00" d=" M 638.15 154.99 C 643.13 147.99 646.60 139.77 653.24 134.07 C 652.88 141.53 650.32 148.64 647.44 155.46 C 634.42 186.45 618.67 216.48 598.68 243.58 C 570.14 282.54 529.85 312.41 485.08 330.19 C 477.69 333.08 469.92 335.26 461.94 335.45 C 470.26 327.95 480.25 322.72 489.52 316.54 C 515.14 299.06 538.51 278.41 559.81 255.89 C 589.15 224.92 614.60 190.50 638.15 154.99 Z" />
<path fill="#000000" opacity="1.00" d=" M 709.40 153.94 C 710.30 154.32 711.20 154.71 712.12 155.10 C 717.53 177.91 720.84 201.19 727.25 223.77 C 732.11 241.71 738.75 259.20 747.41 275.66 C 761.55 302.86 781.87 326.17 802.64 348.48 C 815.68 362.34 829.14 375.80 842.32 389.53 C 845.14 392.41 847.49 395.74 849.25 399.37 C 839.49 396.68 831.15 390.69 822.87 385.10 C 786.98 359.77 754.87 327.54 735.18 287.88 C 727.24 272.09 722.01 255.11 717.90 237.98 C 711.35 210.50 708.53 182.16 709.40 153.94 Z" />
<path fill="#000000" opacity="1.00" d=" M 651.32 269.26 C 653.08 267.38 654.97 265.63 656.92 263.96 C 653.75 272.46 647.68 279.35 642.28 286.49 C 620.78 313.38 596.02 337.45 570.60 360.58 C 510.91 414.20 441.99 456.39 371.09 493.42 C 372.54 502.53 374.15 511.62 375.17 520.79 C 351.57 523.82 327.72 522.22 304.04 523.79 C 300.72 524.14 295.60 522.47 293.91 526.37 C 319.73 530.81 346.10 526.43 371.96 530.37 C 376.90 531.01 380.97 534.60 383.17 538.95 C 386.56 545.47 387.66 552.88 388.43 560.10 C 389.10 567.12 388.50 575.04 383.45 580.45 C 380.60 583.68 376.03 584.38 371.95 584.03 C 362.99 583.05 353.95 583.43 344.96 582.93 C 331.98 582.56 318.96 581.56 305.99 582.44 C 307.77 585.75 311.72 585.83 314.99 585.99 C 332.30 586.73 349.65 587.00 366.92 588.65 C 370.88 589.11 375.04 589.56 378.54 591.66 C 381.90 593.80 383.48 597.77 384.41 601.49 C 386.14 609.42 383.70 617.72 379.45 624.46 C 378.52 625.80 377.69 627.49 375.95 627.89 C 364.62 631.90 352.34 630.13 340.76 632.81 C 339.15 633.06 337.89 634.10 336.86 635.31 C 350.80 638.38 365.02 634.31 379.05 636.11 C 382.96 636.38 385.08 640.57 385.25 644.08 C 385.46 651.57 385.76 659.48 382.35 666.39 C 377.23 677.19 367.47 684.66 358.20 691.74 C 388.12 710.52 416.08 732.25 442.91 755.19 C 511.11 812.66 568.24 883.23 610.10 961.98 C 614.98 971.72 620.26 981.44 622.68 992.15 C 619.39 990.26 616.83 987.44 614.77 984.31 C 601.27 964.67 587.59 945.13 572.81 926.42 C 556.77 905.88 539.24 886.57 521.51 867.50 C 495.30 839.40 467.92 812.38 439.40 786.62 C 428.64 776.98 417.88 767.33 406.57 758.34 C 383.99 740.32 359.84 724.35 335.02 709.60 C 331.98 712.40 329.16 715.42 326.34 718.43 C 352.55 741.91 380.20 763.91 404.38 789.57 C 446.07 833.66 482.15 883.68 506.81 939.31 C 509.64 945.69 512.16 952.29 513.15 959.23 C 508.41 955.46 504.82 950.52 501.48 945.52 C 468.09 896.29 435.51 845.93 394.02 802.97 C 367.62 775.52 337.75 751.10 304.28 732.77 C 301.25 731.17 297.79 732.18 294.64 732.75 C 296.80 740.63 300.32 748.03 303.62 755.48 C 326.41 806.67 347.68 858.55 366.90 911.19 C 369.30 917.81 371.56 924.52 372.79 931.47 C 368.62 926.95 365.83 921.41 362.93 916.05 C 345.20 882.06 330.04 846.82 313.96 812.04 C 302.40 787.10 290.89 761.78 274.12 739.82 C 242.69 748.42 211.17 757.02 180.78 768.90 C 173.58 771.45 166.59 774.86 158.98 776.07 C 153.79 776.82 148.05 776.48 143.66 773.34 C 136.87 768.75 132.20 761.80 128.18 754.81 C 120.32 741.06 113.76 726.58 108.24 711.75 C 100.23 689.86 95.55 666.07 99.33 642.81 C 100.95 633.72 102.88 624.16 108.79 616.77 C 112.50 611.92 118.26 609.50 123.24 606.24 C 130.15 602.04 136.67 597.07 141.82 590.79 C 165.72 563.27 180.24 529.44 195.97 496.97 C 199.33 490.05 202.68 483.12 206.52 476.46 C 208.80 472.57 211.74 468.76 215.98 466.91 C 254.98 450.17 297.02 442.62 337.08 429.00 C 372.30 417.31 406.63 403.05 440.21 387.28 C 467.79 374.27 494.48 359.43 520.32 343.25 C 525.55 339.96 530.89 336.74 536.75 334.68 C 534.49 338.59 531.32 341.87 527.93 344.81 C 500.66 368.79 470.14 388.83 438.39 406.34 C 406.48 424.00 372.65 438.21 337.64 448.41 C 332.33 449.93 327.04 451.51 321.83 453.36 C 325.66 457.31 329.70 461.26 331.92 466.40 C 306.52 467.86 281.03 469.36 255.97 473.97 C 251.45 474.83 246.78 475.48 242.67 477.69 C 234.81 481.73 228.99 488.72 224.26 496.02 C 231.02 492.10 235.62 484.82 243.42 482.61 C 257.08 478.92 270.85 475.26 285.00 474.04 C 292.31 473.35 299.66 473.71 306.99 473.62 C 321.00 473.74 335.05 473.92 349.00 475.41 C 353.05 475.88 356.79 473.94 360.45 472.52 C 425.47 446.04 485.29 408.32 541.32 366.32 C 580.22 336.66 618.38 305.58 651.32 269.26 Z" />
<path fill="#000000" opacity="1.00" d=" M 670.10 294.96 C 676.37 298.01 680.95 303.35 685.96 308.03 C 699.93 321.44 714.12 334.65 729.18 346.84 C 778.45 386.02 834.15 417.09 893.26 438.72 C 906.99 443.14 921.22 448.56 935.91 446.36 C 914.39 430.45 894.49 412.34 876.72 392.33 C 860.73 374.35 846.35 354.69 836.10 332.84 C 843.83 340.30 849.42 349.59 856.08 357.95 C 872.49 379.62 891.07 400.12 913.79 415.32 C 929.00 425.57 945.01 434.64 961.66 442.34 C 971.75 447.13 982.30 450.84 992.42 455.56 C 1002.16 459.91 1012.24 464.09 1022.99 464.99 C 1028.26 465.62 1034.36 465.66 1038.37 469.71 C 1044.25 475.96 1047.51 484.05 1051.42 491.58 C 1066.48 522.19 1079.79 554.09 1100.59 581.42 C 1106.92 589.65 1113.61 597.90 1122.51 603.50 C 1129.01 608.30 1137.29 611.05 1142.08 617.89 C 1147.52 625.48 1149.31 634.89 1150.86 643.92 C 1154.26 666.59 1149.75 689.68 1142.03 711.03 C 1136.40 726.35 1129.60 741.28 1121.48 755.45 C 1117.30 762.60 1112.31 769.68 1105.17 774.13 C 1098.99 777.57 1091.51 776.66 1085.02 774.66 C 1077.16 772.16 1069.55 768.95 1061.81 766.08 C 1045.39 759.91 1028.68 754.47 1011.66 750.22 C 1000.97 780.94 999.03 813.81 999.13 846.08 C 998.96 856.12 999.16 866.22 997.62 876.17 C 993.46 871.57 993.06 865.18 991.71 859.44 C 984.14 821.26 986.40 782.00 990.78 743.58 C 981.79 741.41 972.94 738.73 964.15 735.86 C 940.28 764.43 917.17 793.73 896.87 824.97 C 866.64 870.66 847.33 922.24 826.69 972.67 C 823.39 980.17 820.86 988.32 815.13 994.41 C 815.15 985.46 816.80 976.62 818.92 967.96 C 828.30 928.77 843.46 891.22 860.84 854.96 C 882.25 810.06 907.18 766.67 937.54 727.20 C 935.43 726.16 933.33 725.15 931.23 724.13 C 873.89 786.69 818.50 851.42 754.92 907.86 C 748.10 914.03 741.02 920.08 732.75 924.24 C 736.71 916.42 742.86 910.08 748.39 903.38 C 773.82 873.81 799.89 844.78 824.82 814.78 C 850.30 784.62 874.85 753.65 901.29 724.30 C 905.88 719.23 910.75 714.39 914.94 708.97 C 902.64 699.07 889.56 690.18 877.37 680.14 C 842.63 712.19 810.13 746.61 779.42 782.53 C 750.33 816.68 722.25 851.75 696.65 888.61 C 670.13 926.69 646.07 966.46 624.53 1007.56 C 621.65 1012.98 618.74 1018.46 614.84 1023.25 C 616.36 1012.48 620.51 1002.34 624.30 992.22 C 639.64 952.68 660.97 915.76 684.52 880.59 C 723.05 823.80 765.57 769.62 812.92 719.91 C 830.42 701.47 848.86 683.95 866.84 666.00 C 864.88 658.16 863.94 649.96 865.13 641.93 C 865.51 638.53 868.67 635.86 872.04 635.76 C 884.39 634.85 896.77 637.75 909.08 635.86 C 910.73 635.63 911.87 634.29 913.15 633.35 C 900.22 630.68 886.76 631.54 873.99 628.07 C 865.30 620.04 862.17 605.64 868.15 595.13 C 871.15 589.94 877.79 589.25 883.15 588.64 C 900.74 586.96 918.42 586.72 936.07 585.93 C 939.06 585.88 942.44 585.32 943.96 582.39 C 920.62 581.48 897.29 583.60 873.97 583.88 C 868.48 583.88 864.44 579.02 862.76 574.22 C 860.74 568.38 861.46 562.06 861.99 556.03 C 862.91 548.97 864.79 541.82 868.77 535.83 C 872.98 530.24 880.58 529.72 887.00 529.26 C 910.69 527.04 934.85 531.08 958.22 525.43 C 948.07 522.47 937.41 524.00 927.02 523.27 C 909.68 521.90 892.16 523.63 874.93 520.82 C 876.51 508.26 877.80 495.53 881.67 483.41 C 883.96 477.38 891.35 476.56 896.89 475.80 C 912.84 473.86 928.92 473.74 944.96 473.62 C 951.30 473.70 957.65 473.40 963.98 473.95 C 978.59 475.16 992.87 478.77 1006.93 482.79 C 1014.60 485.03 1019.17 492.18 1025.79 496.19 C 1019.86 486.68 1011.41 477.49 1000.00 475.08 C 974.61 470.47 948.88 467.27 923.03 467.24 C 902.27 466.93 882.12 460.76 863.07 452.90 C 835.71 441.44 810.32 425.84 785.89 409.15 C 749.30 384.25 715.32 355.15 687.01 321.03 C 680.62 312.89 673.58 304.88 670.10 294.96 Z" />
<path fill="#000000" opacity="1.00" d=" M 738.84 418.82 C 742.81 415.15 746.15 410.69 750.76 407.80 C 744.51 418.08 737.07 427.59 730.33 437.55 C 704.82 474.07 679.26 510.53 653.70 547.01 C 672.35 547.09 691.01 546.84 709.66 547.14 C 703.22 555.76 695.94 563.73 689.17 572.10 C 674.72 589.38 660.30 606.69 645.86 623.98 C 643.86 626.35 641.83 628.72 640.14 631.34 C 653.86 631.33 667.58 631.32 681.31 631.36 C 680.57 632.84 679.42 634.05 678.22 635.17 C 625.56 687.83 572.89 740.48 520.25 793.16 C 517.86 795.46 515.61 797.94 512.92 799.90 C 513.62 798.36 514.40 796.85 515.35 795.45 C 542.37 754.96 569.27 714.40 596.40 673.98 C 582.49 674.04 568.59 674.06 554.69 673.96 C 556.00 671.30 558.10 669.19 559.97 666.94 C 580.26 642.60 600.45 618.19 620.82 593.92 C 621.92 592.58 623.05 591.23 623.76 589.65 C 605.33 589.75 586.90 589.71 568.46 589.67 C 570.28 587.12 572.60 585.01 574.82 582.82 C 629.50 528.16 684.15 473.47 738.84 418.82 Z" />
<path fill="#000000" opacity="1.00" d=" M 596.94 451.08 C 619.38 446.84 642.71 448.02 664.78 453.80 C 663.57 455.85 661.66 457.33 660.01 459.00 C 654.04 464.98 647.99 470.87 642.03 476.84 C 640.53 478.67 638.04 477.69 636.06 477.68 C 597.37 474.03 557.56 489.77 531.62 518.66 C 506.90 545.59 494.75 583.64 499.82 619.90 C 503.79 651.34 520.53 680.60 544.78 700.84 C 540.80 708.51 535.40 715.36 531.00 722.80 C 530.37 723.50 529.75 725.36 528.55 724.58 C 494.53 697.89 472.67 656.26 470.35 613.03 C 467.64 573.07 481.38 532.29 507.79 502.16 C 530.55 475.67 562.53 457.22 596.94 451.08 Z" />
<path fill="#000000" opacity="1.00" d=" M 727.98 488.47 C 736.50 495.37 743.66 503.87 750.23 512.62 C 771.62 541.55 782.21 578.22 779.58 614.10 C 777.37 649.56 762.25 684.02 737.75 709.74 C 716.34 732.61 687.83 748.74 657.15 755.11 C 640.99 758.57 624.26 759.34 607.84 757.45 C 604.21 756.98 600.51 756.71 597.06 755.43 C 604.86 747.10 613.20 739.29 621.14 731.10 C 622.55 729.22 625.05 729.89 627.07 729.73 C 657.48 729.42 687.47 717.32 709.89 696.83 C 736.80 672.58 752.43 636.30 751.23 600.05 C 750.70 579.54 744.89 559.24 734.63 541.48 C 728.60 530.46 720.30 520.97 711.74 511.88 C 717.13 504.06 722.65 496.33 727.98 488.47 Z" />
<path fill="#000000" opacity="1.00" d=" M 865.43 709.54 C 872.04 707.41 881.38 712.10 880.47 719.89 C 881.21 729.62 865.79 732.27 861.78 724.27 C 859.41 719.27 861.62 713.18 865.43 709.54 Z" />
<path fill="#000000" opacity="1.00" d=" M 815.53 765.90 C 814.71 758.46 824.07 752.54 830.41 756.58 C 835.91 758.74 835.76 765.77 834.38 770.53 C 832.48 773.99 828.22 774.79 824.92 776.36 C 820.80 774.10 815.03 771.58 815.53 765.90 Z" />
<path fill="#000000" opacity="1.00" d=" M 782.27 802.19 C 787.63 799.46 795.56 803.83 795.37 810.04 C 795.35 813.05 795.78 816.98 792.92 818.90 C 789.24 822.12 783.22 822.81 779.48 819.32 C 773.53 815.02 775.11 804.31 782.27 802.19 Z" />
<path fill="#000000" opacity="1.00" d=" M 742.22 852.20 C 747.04 849.88 753.32 852.66 755.36 857.49 C 756.87 862.22 755.64 868.53 750.60 870.60 C 744.87 873.88 736.94 869.58 736.23 863.13 C 735.38 858.60 737.97 853.93 742.22 852.20 Z" />
<path fill="#000000" opacity="1.00" d=" M 709.15 891.10 C 714.02 883.61 718.03 875.19 725.15 869.51 C 723.53 880.21 718.81 890.07 715.05 900.13 C 699.29 939.58 682.56 978.82 671.56 1019.95 C 664.11 1046.24 660.92 1073.44 655.24 1100.12 C 652.48 1097.20 652.60 1092.78 652.20 1089.04 C 649.53 1046.17 657.38 1002.93 672.95 963.00 C 682.91 938.05 695.23 914.07 709.15 891.10 Z" />
<path fill="#000000" opacity="1.00" d=" M 511.51 881.97 C 516.34 885.69 519.96 890.68 523.14 895.82 C 536.73 917.64 549.84 939.99 558.90 964.14 C 565.10 980.72 569.07 998.27 569.34 1016.02 C 569.97 1047.14 563.67 1078.02 554.34 1107.58 C 553.46 1110.71 551.91 1114.14 548.53 1115.16 C 547.18 1089.16 549.11 1063.11 547.24 1037.13 C 545.65 994.76 533.75 953.69 520.54 913.67 C 517.31 903.18 513.13 892.89 511.51 881.97 Z" />
<path fill="#000000" opacity="1.00" d=" M 608.34 1055.34 C 611.38 1054.24 614.83 1054.18 617.97 1054.96 C 620.98 1055.71 622.50 1058.70 623.47 1061.38 C 625.17 1066.91 620.83 1073.47 615.05 1074.04 C 613.05 1074.08 610.98 1073.97 609.13 1073.18 C 602.50 1070.02 601.60 1058.87 608.34 1055.34 Z" />
</g>
</svg>
